src/assets/icons/icons-origin/Github.svg

<svg width="24" height="24" viewBox="0 0 24 24" xmlns="http://www.w3.org/2000/svg">
  <path d="M11.809 0.479994H11.8982C14.0506 0.479994 16.0646 1.06847 17.7898 2.09279L17.737 2.06303C19.5331 3.11327 20.9875 4.56767 22.008 6.30815L22.0378 6.36383C23.0362 8.06207 23.6256 10.104 23.6256 12.2832C23.6256 17.473 20.2819 21.8832 15.6317 23.4749L15.5482 23.4998C15.4877 23.519 15.4186 23.5296 15.3475 23.5296C15.192 23.5296 15.048 23.4778 14.9318 23.3914L14.9338 23.3923C14.8109 23.2819 14.7341 23.1226 14.7341 22.945C14.7341 22.9402 14.7341 22.9354 14.7341 22.9315V22.9325C14.7341 22.9018 14.7366 22.5094 14.7418 21.7555C14.7469 21.0016 14.7494 20.3123 14.7494 19.6877C14.7562 19.6157 14.76 19.5331 14.76 19.4486C14.76 18.6883 14.4499 18.001 13.9498 17.5046C14.543 17.4461 15.0787 17.3482 15.599 17.2118L15.5261 17.2282C16.0762 17.0746 16.5562 16.8701 17.0016 16.6118L16.9718 16.6282C17.4595 16.3594 17.8723 16.0176 18.2122 15.6125L18.2179 15.6058C18.575 15.1488 18.8544 14.6112 19.0243 14.0266L19.033 13.993C19.2336 13.3373 19.3488 12.5837 19.3488 11.8032C19.3488 11.76 19.3488 11.7158 19.3478 11.6726V11.6794C19.3478 11.6582 19.3488 11.6342 19.3488 11.6102C19.3488 10.4122 18.8861 9.32256 18.1306 8.50944L18.1334 8.51231C18.2947 8.08991 18.3878 7.60223 18.3878 7.09247C18.3878 6.46943 18.2486 5.87999 18 5.35103L18.0106 5.37599C17.9002 5.35487 17.7744 5.34239 17.6448 5.34239C17.3242 5.34239 17.0218 5.41727 16.753 5.54975L16.7645 5.54495C16.2192 5.74655 15.7526 5.97503 15.313 6.24191L15.3494 6.22079L14.7648 6.58943C13.8797 6.33599 12.863 6.19007 11.8128 6.19007C10.7626 6.19007 9.74593 6.33599 8.78209 6.60863L8.85985 6.58943C8.69601 6.47679 8.47809 6.33823 8.20609 6.17375C7.84801 5.96831 7.42465 5.76959 6.98497 5.60255L6.92161 5.58143C6.64033 5.43359 6.30721 5.34719 5.95297 5.34719C5.83393 5.34719 5.71681 5.35679 5.60353 5.37599L5.61601 5.37407C5.37793 5.87711 5.23873 6.46751 5.23873 7.09055C5.23873 7.60031 5.33185 8.08896 5.50273 8.5392L5.49313 8.51136C4.73953 9.3216 4.27777 10.4112 4.27777 11.6093C4.27777 11.6333 4.27777 11.6582 4.27873 11.6822V11.6784C4.27777 11.7158 4.27777 11.759 4.27777 11.8032C4.27777 12.5798 4.39297 13.3306 4.60801 14.0371L4.59361 13.9824C4.77505 14.5997 5.05057 15.1363 5.40961 15.6077L5.40097 15.5952C5.74081 16.0128 6.15169 16.3565 6.61729 16.6147L6.63841 16.6253C7.05313 16.8672 7.53409 17.0717 8.04001 17.2147L8.08417 17.2253C8.53153 17.3453 9.06721 17.4432 9.61537 17.4979L9.65953 17.5018C9.24577 17.9126 8.97025 18.4618 8.90689 19.0742L8.90593 19.0858C8.70721 19.1827 8.47585 19.2614 8.23489 19.3123L8.21473 19.3162C7.96897 19.3651 7.68769 19.393 7.39873 19.393C7.37761 19.393 7.35649 19.393 7.33537 19.393H7.33825C6.96001 19.3853 6.61249 19.2624 6.32545 19.0589L6.33121 19.0627C5.97505 18.8141 5.68705 18.4915 5.48545 18.1162L5.47873 18.1018C5.28865 17.7792 5.03809 17.5123 4.74145 17.3078L4.73281 17.3021C4.51681 17.1398 4.26241 17.0131 3.98785 16.9373L3.97249 16.9334L3.66529 16.8874C3.64321 16.8854 3.61729 16.8845 3.59137 16.8845C3.45697 16.8845 3.32929 16.9114 3.21313 16.9584L3.21985 16.9555C3.13793 17.0016 3.11233 17.0605 3.14305 17.1322C3.18049 17.2147 3.22657 17.2858 3.28225 17.3482L3.28129 17.3472C3.33985 17.4163 3.40609 17.4768 3.47809 17.5296L3.48097 17.5315L3.58849 17.6083C3.86017 17.7504 4.08385 17.9482 4.25377 18.1872L4.25761 18.193C4.44097 18.4205 4.60225 18.6778 4.73185 18.9533L4.74145 18.9763L4.89505 19.3296C5.02465 19.7155 5.25985 20.0381 5.56705 20.2714L5.57185 20.2752C5.85985 20.4998 6.20737 20.6611 6.58657 20.7341L6.60193 20.736C6.91873 20.7974 7.28737 20.8358 7.66369 20.8435H7.67041C7.71361 20.8454 7.76353 20.8454 7.81441 20.8454C8.06497 20.8454 8.31073 20.8253 8.55073 20.7859L8.52481 20.7898L8.87809 20.7283C8.87809 21.1181 8.88065 21.5718 8.88577 22.0896C8.89089 22.6074 8.89345 22.8867 8.89345 22.9277V22.9411C8.89345 23.1187 8.81665 23.2781 8.69377 23.3885C8.57953 23.4739 8.43553 23.5258 8.27905 23.5258C8.20705 23.5258 8.13793 23.5152 8.07361 23.495L8.07841 23.496C3.34657 21.8746 0.00576782 17.4643 0.00576782 12.2736C0.00576782 10.0963 0.593288 8.05631 1.61953 6.30335L1.58881 6.35903C2.63905 4.56287 4.09345 3.10847 5.83393 2.08799L5.88961 2.05823C7.55905 1.06559 9.57121 0.479034 11.7197 0.479034H11.8138H11.809V0.479994ZM4.47457 17.4394C4.50529 17.3677 4.46945 17.3062 4.36705 17.255C4.26465 17.2243 4.19809 17.2346 4.16737 17.2858C4.13665 17.3574 4.17249 17.4189 4.27489 17.4701C4.36705 17.5315 4.43361 17.5213 4.47457 17.4394ZM4.95169 17.9626C5.02337 17.9114 5.01313 17.8294 4.92097 17.7168C4.81857 17.6246 4.73665 17.6093 4.67521 17.6707C4.60353 17.7219 4.61377 17.8038 4.70593 17.9165C4.80769 18.017 4.88961 18.032 4.95169 17.9616V17.9626ZM5.41249 18.6538C5.50465 18.5821 5.50465 18.4848 5.41249 18.3619C5.33057 18.2288 5.24353 18.1981 5.15137 18.2698C5.05921 18.321 5.05921 18.4131 5.15137 18.5462C5.24353 18.6794 5.33057 18.7152 5.41249 18.6538ZM6.05761 19.2998C6.13953 19.2179 6.11905 19.1206 5.99617 19.008C5.87329 18.8851 5.77089 18.8698 5.68897 18.9619C5.59681 19.0438 5.61729 19.1411 5.75041 19.2538C5.87329 19.3766 5.97569 19.3907 6.05761 19.296V19.2998ZM6.93409 19.6838C6.96481 19.5712 6.89825 19.4893 6.73441 19.4381C6.58081 19.3971 6.48353 19.433 6.44257 19.5456C6.40161 19.6582 6.46817 19.735 6.64225 19.776C6.79585 19.8381 6.89313 19.8074 6.93409 19.6838ZM7.90273 19.7606C7.90273 19.6275 7.81569 19.5712 7.64161 19.5917C7.47777 19.5917 7.39585 19.648 7.39585 19.7606C7.39585 19.8938 7.48289 19.9501 7.65697 19.9296C7.82081 19.9302 7.90273 19.8733 7.90273 19.7606ZM8.79457 19.607C8.77409 19.4944 8.68193 19.4483 8.51809 19.4688C8.35425 19.4995 8.28257 19.5763 8.30305 19.6992C8.32353 19.8221 8.41569 19.863 8.57953 19.8221C8.74337 19.7811 8.81441 19.7094 8.79457 19.607Z" fill="currentColor" />
</svg>

<svg width="24" height="24" viewBox="0 0 24 24" xmlns="http://www.w3.org/2000/svg">
  <path d="M11.809.48h.09c2.152 0 4.166.588 5.89 1.613l-.052-.03a11.857 11.857 0 0 1 4.271 4.245l.03.056a11.695 11.695 0 0 1 1.588 5.92c0 5.189-3.344 9.6-7.994 11.19l-.084.026a.695.695 0 0 1-.616-.108h.002a.599.599 0 0 1-.2-.447v-.014.002l.008-1.177c.005-.754.007-1.444.007-2.068a2.73 2.73 0 0 0-.8-2.183 10.465 10.465 0 0 0 1.65-.293l-.073.016a6.244 6.244 0 0 0 1.476-.616l-.03.016c.487-.269.9-.61 1.24-1.015l.006-.007c.357-.457.636-.995.806-1.58l.009-.033c.2-.656.316-1.41.316-2.19l-.001-.13v.006-.069a4.54 4.54 0 0 0-1.217-3.1l.002.002c.162-.422.255-.91.255-1.42A4.08 4.08 0 0 0 18 5.351l.01.025a2.01 2.01 0 0 0-1.258.174l.013-.005a8.274 8.274 0 0 0-1.452.697l.036-.021-.584.368c-.885-.253-1.902-.399-2.952-.399s-2.067.146-3.03.419l.077-.02a13.82 13.82 0 0 0-.654-.415 8.739 8.739 0 0 0-1.221-.571l-.063-.022a2.087 2.087 0 0 0-1.318-.205l.012-.002a4.031 4.031 0 0 0-.377 1.717c0 .51.093.998.264 1.448l-.01-.028a4.534 4.534 0 0 0-1.215 3.098v.073-.004.125c0 .777.115 1.528.33 2.234l-.014-.055c.181.618.457 1.154.816 1.626l-.009-.013c.34.418.75.761 1.216 1.02l.021.01c.415.242.896.447 1.402.59l.044.01c.448.12.983.218 1.531.273l.045.004c-.414.41-.69.96-.753 1.572l-.001.012c-.199.097-.43.175-.671.226l-.02.004a4.25 4.25 0 0 1-.816.077h-.064.003a1.807 1.807 0 0 1-1.013-.334l.006.004a2.727 2.727 0 0 1-.846-.947l-.006-.014a2.5 2.5 0 0 0-.738-.794l-.008-.006a2.236 2.236 0 0 0-.745-.365l-.016-.004-.307-.046a1.007 1.007 0 0 0-.452.071l.007-.003c-.082.047-.108.106-.077.177a.844.844 0 0 0 .14.216H3.28c.059.068.125.129.197.182l.003.002.107.076c.272.142.496.34.666.58l.004.005c.183.227.344.485.474.76l.01.023.153.354c.13.386.365.708.672.941l.005.004c.288.225.635.386 1.015.46l.015.001c.317.061.685.1 1.062.107h.006c.044.002.094.002.144.002.251 0 .497-.02.737-.06l-.026.005.353-.062c0 .39.003.844.008 1.362l.007.838v.013a.6.6 0 0 1-.2.448.692.692 0 0 1-.62.106l.005.001C3.347 21.875.006 17.464.006 12.274c0-2.178.587-4.218 1.614-5.97l-.031.055a11.857 11.857 0 0 1 4.245-4.271l.056-.03A11.422 11.422 0 0 1 11.72.48h.094-.005V.48ZM4.475 17.44c.03-.072-.006-.134-.108-.185-.102-.03-.169-.02-.2.03-.03.072.005.134.108.185.092.062.159.051.2-.03Zm.477.523c.071-.052.061-.134-.031-.246-.102-.092-.184-.108-.246-.046-.071.05-.061.133.03.245.103.101.185.116.247.046Zm.46.69c.093-.07.093-.168 0-.291-.081-.133-.168-.164-.26-.092-.093.051-.093.143 0 .276.092.133.179.17.26.108Zm.646.647c.082-.082.061-.18-.062-.292-.123-.123-.225-.138-.307-.046-.092.082-.072.18.061.292.123.123.226.137.308.042v.004Zm.876.384c.03-.113-.036-.195-.2-.246-.153-.04-.25-.005-.291.108-.041.112.025.189.2.23.153.062.25.031.291-.092Zm.969.077c0-.133-.087-.19-.261-.17-.164 0-.246.057-.246.17 0 .133.087.19.261.169.164 0 .246-.057.246-.17Zm.892-.154c-.02-.113-.113-.159-.277-.138-.164.03-.235.107-.215.23.02.123.113.164.277.123.163-.04.234-.113.215-.215Z" fill="currentColor"/>
</svg>
